awards/quarter-time.svg

<svg width="50" height="50" xmlns="http://www.w3.org/2000/svg"><path d="M50 25c0 13.807-11.193 25-25 25S0 38.807 0 25 11.193 0 25 0s25 11.193 25 25zm-26.282-2.167H9.168v3.49h14.55zm-4.83 5.61h-4.87v3.51h4.87zm0-11.16h-4.87v3.49h4.87zm20.671 13.96-2.09-.45v-1.64h1.98v-3.05h-1.98v-12.27h-4.84l-8.1 13.05.32 2.27h7.75v1.64l-2.12.45v2.85h9.08zm-7.04-11.09.08.02v5.93h-3.73l3.27-5.47z" style="fill:#04be9f"/></svg>

<?xml version="1.0" encoding="utf-8"?>
<svg width="50" height="50" xmlns="http://www.w3.org/2000/svg">
  <path d="M 50 25 C 50 38.807 38.807 50 25 50 C 11.193 50 0 38.807 0 25 C 0 11.193 11.193 0 25 0 C 38.807 0 50 11.193 50 25 Z M 23.718 22.833 L 9.168 22.833 L 9.168 26.323 L 23.718 26.323 Z M 18.888 28.443 L 14.018 28.443 L 14.018 31.953 L 18.888 31.953 Z M 18.888 17.283 L 14.018 17.283 L 14.018 20.773 L 18.888 20.773 Z M 39.559 31.243 L 37.469 30.793 L 37.469 29.153 L 39.449 29.153 L 39.449 26.103 L 37.469 26.103 L 37.469 13.833 L 32.629 13.833 L 24.529 26.883 L 24.849 29.153 L 32.599 29.153 L 32.599 30.793 L 30.479 31.243 L 30.479 34.093 L 39.559 34.093 Z M 32.519 20.153 L 32.599 20.173 L 32.599 26.103 L 28.869 26.103 L 32.139 20.633 Z" style="fill: rgb(4, 190, 159);"/>
</svg>
